public/svg/sliders.svg

<svg width="56" height="56" viewBox="0 0 56 56" fill="none" xmlns="http://www.w3.org/2000/svg">
<path d="M32.6667 18.6668C35.244 18.6668 37.3333 16.5775 37.3333 14.0002C37.3333 11.4228 35.244 9.3335 32.6667 9.3335C30.0893 9.3335 28 11.4228 28 14.0002C28 16.5775 30.0893 18.6668 32.6667 18.6668Z" stroke="#1B5BF7" stroke-width="3.5" stroke-linecap="round" stroke-linejoin="round"/>
<path d="M9.33301 14H27.9997" stroke="#1B5BF7" stroke-width="3.5" stroke-linecap="round" stroke-linejoin="round"/>
<path d="M37.333 14H46.6663" stroke="#1B5BF7" stroke-width="3.5" stroke-linecap="round" stroke-linejoin="round"/>
<path d="M18.6667 32.6668C21.244 32.6668 23.3333 30.5775 23.3333 28.0002C23.3333 25.4228 21.244 23.3335 18.6667 23.3335C16.0893 23.3335 14 25.4228 14 28.0002C14 30.5775 16.0893 32.6668 18.6667 32.6668Z" stroke="#1B5BF7" stroke-width="3.5" stroke-linecap="round" stroke-linejoin="round"/>
<path d="M9.33301 28H13.9997" stroke="#1B5BF7" stroke-width="3.5" stroke-linecap="round" stroke-linejoin="round"/>
<path d="M23.333 28H46.6663" stroke="#1B5BF7" stroke-width="3.5" stroke-linecap="round" stroke-linejoin="round"/>
<path d="M39.6667 46.6668C42.244 46.6668 44.3333 44.5775 44.3333 42.0002C44.3333 39.4228 42.244 37.3335 39.6667 37.3335C37.0893 37.3335 35 39.4228 35 42.0002C35 44.5775 37.0893 46.6668 39.6667 46.6668Z" stroke="#1B5BF7" stroke-width="3.5" stroke-linecap="round" stroke-linejoin="round"/>
<path d="M9.33301 42H34.9997" stroke="#1B5BF7" stroke-width="3.5" stroke-linecap="round" stroke-linejoin="round"/>
<path d="M44.333 42H46.6663" stroke="#1B5BF7" stroke-width="3.5" stroke-linecap="round" stroke-linejoin="round"/>
</svg>

<svg xmlns="http://www.w3.org/2000/svg" width="56" height="56" fill="none" stroke="#1b5bf7" stroke-width="3.5" stroke-linejoin="round" xmlns:v="https://vecta.io/nano"><path d="M32.667 18.667A4.67 4.67 0 0 0 37.333 14a4.67 4.67 0 0 0-4.667-4.667A4.67 4.67 0 0 0 28 14a4.67 4.67 0 0 0 4.667 4.667z"/><path d="M9.333 14H28m9.333 0h9.333" stroke-linecap="round"/><path d="M18.667 32.667A4.67 4.67 0 0 0 23.333 28a4.67 4.67 0 0 0-4.667-4.667A4.67 4.67 0 0 0 14 28a4.67 4.67 0 0 0 4.667 4.667z"/><path d="M9.333 28H14m9.333 0h23.333" stroke-linecap="round"/><path d="M39.667 46.667A4.67 4.67 0 0 0 44.333 42a4.67 4.67 0 0 0-4.667-4.667A4.67 4.67 0 0 0 35 42a4.67 4.67 0 0 0 4.667 4.667z"/><path d="M9.333 42H35m9.333 0h2.333" stroke-linecap="round"/></svg>
